X:9
T:The Turnpike
T:Lardner's, The Halfway House
T:(The Dawn -incorrect title used on the CD, - see note below)
B:Brenda Stubbert: The 2nd Collection
R:reel
D:Lisa MacArthur
N:I didn't listen carefully enough and gave Lisa the incorrect title for her CD (PSC)
H:The title the Turnpike gate comes from Frankie Kennedy & Mairead Mooney's 1984 LP.
S:Tommy Peoples was the source cited on the 1984 recording.
Z:Paul Stewart Cranford (P.S.C.), <http://www.cranfordpub.com>
L:1/8
M:C|
Q:333
K:A
E|A2 cA BAFA|E3 F ABce|a3 e f2 ec|dBcA BdcB|
A2 cA BAFA|E3 F ABce|a3 e faec|BAGB A3:|
|:D|E2 GE BEGB|A/A/A cA eAcA|B2 ^dB fBdB|e/e/e ge bege|
a2 ae faec|defg a2 ga|bgaf ge e/e/e|BAGB A3:|
% if none of this makes sense, go to http://www.cranfordpub.com/tunes/abcs
